X: 1
T: Maud Millar
M: 4/4
L: 1/8
R: reel
K: Gmaj
||gf|edBA GBDE|G2BG dGBd|eBdB A2GA|1 Beed e2:|2 Beed ~e2||
||ge|dega bg~g2|agef gfge|dega bg~g2|aged gage|
dega bg~g2|agef ~g3a|bgaf gfed|Beed efgf||
